X:7
T:Swagger 2nds
T:Medley 2019
R:Jig
C:Shane Smith, Arr. Adam Blaine
M:6/8
L:1/8
K:D
[| {g}B{d}B{e}B {g}fed | e{g}e{A}e {g}A3 | {g}B{d}B{e}B {g}Bdf | e{g}e{A}e {g}edc |
 {g}B{d}B{e}B {g}fed | e{g}e{A}e {g}A3 | {g}Bdf {g}edc | {g}B{d}B{e}B {g}B2 A ||  
[|:{g}Bdf {g}edc | {g}d{e}d{G}d {g}A3 | {g}e3 f3 | {gf}g3 a3 |
Bdf {g}edc | {g}d{e}d{G}d {g}A3 | {g}Bdf {g}edc | {g}B{d}B{e}B {g}B2 A :|]
[| {g}BfB {g}fed | {g}AeA {g}edc | {g}GdG {g}dcB | {g}cA{g}d A{g}eA |
{g}BfB {g}fed | {g}AeA {g}edc | {g}Bdf {g}edc | {g}B{d}B{e}B {g}B2 A ||
[| {g}f6 | {g}e6 | {gf}g6 | {a}e2 f2 g2 |
{a}f6 | {g}e6 | {g}f3 g3 | e2 f2 g2 ||
{g}f6 | {g}e6 | {gf}g6 | e2 f2 g2 |
{a}f6 | {g}e6 | {g}f3 g3 "OFF" [M:1/8]| f |]
